src/assets/ecommerce.svg

<svg width="93" height="93" viewBox="0 0 93 93" fill="none" xmlns="http://www.w3.org/2000/svg">
<g clip-path="url(#clip0_433_346)">
<path d="M0.083743 57.0997C0.0619503 49.8347 0.0438253 42.5817 0.0292969 35.3409C0.0292969 26.0876 0.0292969 16.838 0.0292969 7.59197C0.0292969 3.95944 3.41079 0.519431 7.02837 0.406823C32.2824 -0.388701 57.5436 0.261528 82.7976 0.0835336C86.4297 0.0581059 89.7204 0.904484 91.7507 4.39534C92.873 6.32785 92.8877 8.46741 92.9022 10.5198C93.0003 26.3576 92.9784 42.1954 92.9893 58.0333C92.9893 58.5673 93.0983 59.123 92.677 59.588C91.9179 58.1023 90.6357 57.9134 89.1102 57.9352C87.4721 57.957 85.776 58.3311 84.196 57.5284C83.1245 55.0255 83.3897 52.312 83.0229 49.7002C82.6596 47.1575 82.7177 47.1248 80.1934 47.0703C78.8132 47.0412 77.4077 47.2991 76.0601 46.7797C75.2066 46.1186 75.41 45.1523 75.3919 44.2769C75.3483 42.2935 75.4536 40.3102 74.8506 38.3631C73.2125 33.0487 68.1785 30.0083 62.2436 30.7602C57.4383 31.3814 53.3231 36.1545 53.1887 41.2655C53.1597 42.4679 53.2142 43.6775 53.1633 44.8799C53.1343 45.6064 53.1815 46.3547 52.4369 46.8124C50.0979 47.3754 47.7152 47.034 45.3689 47.0558C43.7381 47.0049 43.1896 47.9058 43.0843 49.4169C42.9535 51.4003 42.7465 53.38 42.4777 55.3525C42.278 56.8382 41.5552 57.5683 39.9716 57.5683C27.2423 57.5683 14.5129 57.5683 1.78363 57.5683C1.18433 57.5538 0.570445 57.5574 0.083743 57.0997Z" fill="#E8E8E8"/>
<path d="M45.3755 46.5291L52.6179 46.569C53.5042 47.4626 53.0502 48.6105 53.2064 49.6421C53.3153 50.3359 52.912 51.502 54.0598 51.4584C54.9969 51.4221 54.9171 50.3323 55.0224 49.5731C55.175 48.4325 54.6592 47.1357 55.8033 46.2203C56.4245 45.9822 57.09 45.8818 57.7538 45.9261C62.0857 45.9115 66.4188 45.9115 70.7531 45.9261C71.4157 45.8872 72.0795 45.9786 72.7071 46.1949C73.4699 46.609 73.3971 47.3718 73.5206 48.0801C73.724 49.2498 72.9795 51.3204 74.4178 51.3494C76.0414 51.3821 75.0934 49.3297 75.3622 48.2146C75.5002 47.6442 75.384 46.9977 75.9288 46.569C77.7449 46.569 79.5427 46.6707 81.3261 46.4855C83.1094 46.3002 83.4217 47.0885 83.5234 48.5996C83.7232 51.5274 84.1046 54.4407 84.4134 57.3613C85.5466 58.9305 85.2197 60.8194 85.4521 62.563C85.6155 63.7654 86.0259 65.0513 85.3867 66.2682C85.9048 71.5548 86.4242 76.8413 86.9448 82.1278C87.2681 85.3753 87.5733 88.6228 87.9474 91.8594C88.0491 92.7203 87.9001 93.0218 86.9594 93.0145C79.4046 92.9637 71.8499 92.96 64.2951 92.9419C63.0093 90.9513 63.2927 88.6301 63.053 86.4578C62.2539 79.1455 61.4584 71.8333 60.7174 64.5173C60.4814 62.1489 60.2926 62.0073 57.9208 61.9964C54.1217 61.9964 50.3223 61.9964 46.5232 61.9964C45.626 61.9964 44.7072 62.0981 43.8936 61.5387C43.0836 60.2818 43.407 58.916 43.5123 57.5683C43.9591 54.6623 44.137 51.7308 44.4748 48.8139C44.5728 47.9421 44.6455 47.1103 45.3755 46.5291Z" fill="#2ECC82"/>
<path d="M43.8323 61.3934C48.9681 61.4188 54.1039 61.4842 59.2396 61.4406C60.5 61.4406 60.9977 61.7021 61.1284 63.0789C61.7459 69.6174 62.4977 76.156 63.2023 82.6945C63.568 86.1091 63.9312 89.5249 64.292 92.9419C53.6898 92.9419 43.0876 92.9637 32.4855 93.0145C31.3668 93.0145 31.1852 92.5823 31.3124 91.6051C31.563 89.6399 31.7264 87.6675 31.9262 85.695C31.4286 85.1211 31.5847 84.449 31.6537 83.7916C32.2131 78.3827 32.8051 72.9775 33.3717 67.5687C33.8039 66.2283 33.5097 64.8189 33.8112 63.453C34.2797 61.3244 34.6612 60.9103 36.7823 60.8521C38.1662 60.8158 39.5537 60.7868 40.9339 60.8812C41.9291 60.9066 42.9787 60.5979 43.8323 61.3934Z" fill="#126F43"/>
<path d="M41.0422 61.4188C39.3641 61.4479 37.6824 61.5241 36.0044 61.4842C34.9801 61.4624 34.5043 61.7167 34.4462 62.8609C34.3663 64.4665 34.0504 66.0575 33.8361 67.6558C32.7465 66.7622 31.21 67.3471 30.1168 66.4934L9.10874 66.3808C7.40892 66.3808 5.71998 66.2537 4.19813 65.3964C1.09268 63.6455 -0.356558 61.0374 0.0829269 57.4448C0.380759 57.1615 0.758526 57.2305 1.11084 57.2305C14.4879 57.2305 27.8685 57.1978 41.2456 57.2523C42.5241 58.7053 41.8957 60.0675 41.0422 61.4188Z" fill="#414141"/>
<path d="M30.1182 66.4934C30.9572 66.4934 31.8036 66.5261 32.6426 66.4716C33.4816 66.4171 33.8122 66.8857 33.8376 67.6558C33.3836 73.6822 32.708 79.6868 31.9307 85.6804C27.2816 85.6804 22.6289 85.6332 17.9762 85.7059C16.7486 85.724 16.4688 85.3208 16.4688 84.1621C16.4688 79.5524 18.8478 77.0932 23.4605 77.0677C27.5539 77.0423 27.5576 77.0423 28.5455 72.9957C29.0867 70.8307 29.5952 68.6621 30.1182 66.4934Z" fill="#414141"/>
<path d="M85.3836 66.2537C85.0592 63.2871 84.7346 60.3181 84.4102 57.3467C86.3933 57.3467 88.3837 57.4666 90.356 57.3213C92.1429 57.1869 93.1163 57.5865 92.6732 59.588C91.5581 63.7036 89.3136 65.7706 85.3836 66.2537Z" fill="#414141"/>
<path d="M41.434 57.4703L0.0934869 57.4448C0.0625877 57.3319 0.0625877 57.2127 0.0934869 57.0997C13.2744 57.0997 26.4588 57.0598 39.6433 57.0997C41.0381 57.0997 41.8734 56.9726 41.8989 55.2508C41.9315 53.2783 42.382 51.3131 42.4873 49.3334C42.6398 46.5654 42.6326 46.5073 45.393 46.54C45.0298 49.6313 44.6885 52.7153 44.3289 55.8066C44.2671 56.3369 44.158 56.86 44.0708 57.3867C43.2028 58.0551 42.3239 58.1132 41.434 57.4703Z" fill="#BEBEBE"/>
<path d="M42.808 27.6436C42.2922 31.8101 41.8601 35.9984 41.2282 40.1395C40.8649 42.3989 39.2376 43.8773 36.9966 43.9064C30.5533 43.9972 24.1064 43.9355 17.6594 43.9064C17.4275 43.8629 17.205 43.7794 17.002 43.6594C18.4548 42.6604 19.9077 43.0273 21.0918 43.2961C19.6644 42.5406 19.1159 40.895 18.9125 39.0461C18.6982 37.1317 18.4257 35.2246 18.1533 33.3176C17.5467 29.0857 19.3701 27.1931 23.6524 27.56C24.3788 27.7017 24.6875 28.3192 25.1052 28.8314C26.6307 30.7167 28.2433 30.713 29.707 28.8314C30.0703 28.3592 30.3355 27.7889 30.982 27.6036C34.9182 27.2849 38.874 27.2983 42.808 27.6436Z" fill="#2ECC82"/>
<path d="M24.0231 27.9814C23.6017 27.9814 23.1803 27.9814 22.7554 27.9814C19.5628 27.9996 18.1244 29.6378 18.5639 32.7945C18.909 35.2864 19.3158 37.771 19.6209 40.2702C19.7844 41.6034 20.8051 42.3153 21.6986 43.3724C20.046 43.8156 18.4986 43.4342 17.0022 43.6521C14.8956 43.1036 13.7333 41.8794 13.4754 39.838C12.8459 34.9946 12.2284 30.1621 11.623 25.3405C11.5467 24.7085 11.4016 24.2798 10.7187 23.9565C9.2005 23.23 8.78283 21.6935 9.28769 19.5975C9.67269 18.0028 10.8277 17.7812 12.1934 17.8139C13.9404 17.8539 15.6873 17.8539 17.4344 17.8721C17.932 18.4969 17.5615 19.1326 17.4344 19.7573C16.9259 22.5253 17.6379 23.3899 20.4128 23.4662C21.6877 23.5097 23.0677 23.0593 24.1937 24.0801C24.6586 25.4241 24.8367 26.7245 24.0231 27.9814Z" fill="#126F43"/>
<path d="M75.9395 46.5545C75.9395 47.8767 75.9177 49.1953 75.9214 50.5175C75.9214 51.5165 75.7033 52.3738 74.4902 52.3629C73.2771 52.352 73.0919 51.4402 73.0701 50.474C73.0375 49.1553 73.0192 47.8367 72.9974 46.5181C72.1729 45.4284 72.5325 44.1897 72.5071 43.0127C72.4744 41.3745 72.4563 39.7725 71.7372 38.2323C70.1645 34.8722 66.5032 32.7835 63.2053 33.4483C58.9376 34.2983 56.3043 37.1716 56.1081 41.2001C56.0573 42.2899 56.1081 43.3796 56.0863 44.4694C56.0863 45.1959 56.1373 45.9224 55.5743 46.5218C55.5453 47.7786 55.5198 49.0355 55.4835 50.2923C55.4581 51.2876 55.3998 52.3411 54.0669 52.3701C52.7339 52.3992 52.6141 51.393 52.6396 50.3614C52.6396 49.1009 52.6396 47.8404 52.6396 46.5799C52.9338 43.7719 52.2254 40.9131 53.2243 38.1306C55.3454 32.206 60.1907 29.2091 66.6159 30.2916C71.8389 31.1707 75.9541 35.7767 75.9214 41.8467C75.8923 43.4087 75.9177 44.9779 75.9395 46.5545Z" fill="#FEFEFE"/>
<path d="M24.0229 27.9814L24.0011 24.0146C23.5313 23.0532 23.2871 21.9971 23.2871 20.927C23.2871 19.8568 23.5313 18.8008 24.0011 17.8393C24.0374 16.0921 24.0446 14.3485 24.11 12.6049C24.1935 10.3418 25.3959 9.03046 27.3282 9.01593C29.3549 9.01593 30.5317 10.3345 30.5607 12.7138C30.5861 14.3993 30.5825 16.0848 30.5898 17.774C30.8736 18.1671 31.0249 18.6404 31.022 19.1253C31.022 21.4646 31.0728 23.8076 31.1128 26.1469C31.1696 26.8132 30.9782 27.4769 30.5753 28.0104C30.212 29.5978 29.206 30.6513 27.6006 30.7603C25.701 30.891 24.7021 29.576 24.0229 27.9814Z" fill="#414141"/>
<path d="M30.8762 17.8793C34.9006 17.8793 38.9248 17.8321 42.9492 17.8466C44.7653 17.8466 45.3682 18.5404 45.4626 20.3676C45.557 22.1947 45.5826 23.9347 43.2253 24.3633C39.4589 24.8537 35.6814 24.5958 31.9077 24.4977C31.1812 24.476 30.6546 24.1127 30.7054 23.2445C30.8107 21.461 30.4948 19.6592 30.8762 17.8793Z" fill="#2ECC82"/>
<path d="M75.8097 16.0739C72.7296 16.0739 69.6351 16.0739 66.5769 16.0739C65.578 16.0739 64.6809 15.8923 64.67 14.6863C64.6591 13.4803 65.5634 13.2333 66.5441 13.2333C72.7574 13.2333 78.9732 13.2333 85.1914 13.2333C86.1721 13.2333 87.0983 13.4948 87.1055 14.6681C87.1128 15.8414 86.2409 16.0957 85.2203 16.0884C82.0822 16.063 78.9442 16.0739 75.8097 16.0739Z" fill="#404350"/>
<path d="M76.0091 19.9135C79.0273 19.9135 82.042 19.9135 85.0567 19.9135C86.0955 19.9135 87.1197 20.037 87.1015 21.3665C87.1015 22.5507 86.1099 22.765 85.151 22.7687C78.9377 22.7687 72.7245 22.7687 66.5111 22.7687C65.5305 22.7687 64.6333 22.4817 64.6587 21.2793C64.6842 20.077 65.6393 19.928 66.5982 19.928L76.0091 19.9135Z" fill="#414350"/>
<path d="M30.8757 17.8793C30.8757 19.4413 30.9302 21.0069 30.8757 22.5689C30.8285 23.6586 31.2389 24.0437 32.3286 24.0219C35.5139 23.971 38.7027 24.0219 41.8917 24.0219C42.3639 24.0219 42.8688 23.9384 43.2284 24.3852C43.0904 25.4749 42.9488 26.5647 42.8108 27.6544C41.8664 28.2502 40.813 27.9886 39.8033 27.9995C36.7269 28.0358 33.6506 28.0249 30.5742 28.0286C30.5742 24.6164 30.5742 21.2043 30.5742 17.7921C30.6807 17.7935 30.7849 17.8236 30.8757 17.8793Z" fill="#126F43"/>
<path d="M24.0003 17.8466C24.0003 19.9026 24.0003 21.9611 24.0003 24.0219C22.5656 24.0219 21.1309 24.0219 19.6962 24.0219C17.4225 24.0219 16.7434 23.2954 16.707 21.0287C16.707 19.9063 17.27 18.9654 17.4335 17.912L24.0003 17.8466Z" fill="#2ECC82"/>
<path d="M56.6284 16.063C55.6623 16.063 54.6961 16.0848 53.7227 16.063C52.8837 16.034 52.357 15.5799 52.3098 14.7299C52.2855 14.5454 52.3017 14.3578 52.357 14.1801C52.4123 14.0024 52.5054 13.8389 52.6301 13.7007C52.7547 13.5626 52.9079 13.4531 53.0789 13.3799C53.25 13.3068 53.4349 13.2716 53.6209 13.2769C55.6694 13.2006 57.7217 13.2042 59.7666 13.2769C59.9513 13.2708 60.1352 13.3048 60.3056 13.3765C60.4759 13.4482 60.6287 13.5558 60.7535 13.6921C60.8784 13.8284 60.9724 13.9901 61.029 14.1661C61.0855 14.342 61.1034 14.5282 61.0813 14.7117C61.0377 15.6889 60.4239 16.063 59.5123 16.0667H56.6066L56.6284 16.063Z" fill="#2ECC82"/>
<path d="M56.8277 19.9317C57.7321 19.9317 58.6439 19.9317 59.541 19.9317C60.4381 19.9317 61.0664 20.3131 61.0954 21.2975C61.1139 21.4811 61.0926 21.6665 61.033 21.8412C60.9734 22.0158 60.8769 22.1756 60.7501 22.3096C60.6234 22.4437 60.4693 22.5489 60.2983 22.618C60.1272 22.6872 59.9433 22.7188 59.7589 22.7105C57.7141 22.7723 55.6619 22.7796 53.617 22.7105C53.4316 22.7155 53.2473 22.6799 53.077 22.6065C52.9066 22.533 52.7543 22.4233 52.6306 22.2851C52.5069 22.1468 52.4147 21.9833 52.3605 21.8059C52.3063 21.6284 52.2913 21.4413 52.3167 21.2575C52.3639 20.3821 52.9414 19.9789 53.7695 19.9462C54.7901 19.9026 55.818 19.9462 56.8423 19.9462L56.8277 19.9317Z" fill="#2ECC82"/>
<path d="M55.5648 46.5109C55.6992 44.1134 55.2379 41.6905 55.8518 39.3149C56.3379 37.3664 57.4899 35.6492 59.1082 34.4605C60.7266 33.2718 62.7096 32.6863 64.7141 32.8054C66.9377 32.9167 69.0345 33.8747 70.5744 35.4829C72.1142 37.0912 72.9805 39.2278 72.9954 41.4544C72.9954 43.1399 72.9954 44.829 72.9954 46.5182L55.5648 46.5109Z" fill="#CBE0F0"/>
<path d="M41.4352 57.4702L44.072 57.3758C43.9994 58.7162 43.9232 60.053 43.847 61.3934C42.9255 61.5617 41.9818 61.5703 41.0574 61.4188C41.032 60.0893 41.6241 58.8179 41.4352 57.4702Z" fill="#33333D"/>
<path d="M55.2373 70.8597C55.2373 71.9495 55.3027 73.0392 55.2373 74.129C55.067 75.9819 54.2139 77.7052 52.8438 78.964C51.4737 80.2228 49.6845 80.9271 47.8241 80.94C44.1012 80.9654 40.6543 78.034 40.3638 74.3724C40.1822 72.0875 40.3021 69.7809 40.2839 67.4706C40.2839 66.537 40.7416 65.9159 41.6533 65.8904C42.5649 65.865 43.0625 66.5842 43.1061 67.4415C43.1715 69.3159 43.1061 71.1903 43.1605 73.061C43.2187 75.9998 45.111 78.0449 47.7588 78.0703C50.4066 78.0957 52.357 76.047 52.4332 73.141C52.4768 71.3864 52.4332 69.6356 52.455 67.8811C52.455 66.9184 52.6912 65.9304 53.8499 65.905C55.1357 65.8723 55.3354 66.8712 55.3027 67.9355C55.2773 68.9018 55.3027 69.8717 55.3027 70.8416L55.2373 70.8597Z" fill="#E8E8E8"/>
</g>
<defs>
<clipPath id="clip0_433_346">
<rect width="93" height="93" fill="white"/>
</clipPath>
</defs>
</svg>

<svg width="93" height="93" fill="none" xmlns="http://www.w3.org/2000/svg"><g clip-path="url(#a)"><path d="M.084 57.1C.062 49.835.044 42.582.029 35.34V7.593c0-3.633 3.382-7.073 7-7.185C32.281-.39 57.543.262 82.797.084c3.632-.026 6.922.82 8.953 4.311 1.122 1.933 1.137 4.072 1.151 6.125.098 15.838.076 31.675.087 47.513 0 .534.11 1.09-.312 1.555-.76-1.486-2.041-1.675-3.567-1.653-1.638.022-3.334.396-4.914-.407-1.072-2.502-.806-5.216-1.173-7.828-.363-2.543-.305-2.575-2.83-2.63-1.38-.029-2.785.23-4.133-.29-.853-.661-.65-1.628-.668-2.503-.044-1.983.062-3.967-.541-5.914-1.638-5.314-6.672-8.355-12.607-7.603-4.806.621-8.92 5.394-9.055 10.506-.03 1.202.025 2.412-.026 3.614-.029.726.019 1.475-.726 1.932-2.34.563-4.722.222-7.068.244-1.63-.051-2.18.85-2.285 2.36a85.77 85.77 0 0 1-.606 5.937c-.2 1.485-.923 2.215-2.506 2.215H1.784c-.6-.014-1.214-.01-1.7-.468Z" fill="#E8E8E8"/><path d="m45.376 46.53 7.242.039c.886.894.432 2.041.588 3.073.11.694-.294 1.86.854 1.816.937-.036.857-1.126.962-1.885.153-1.14-.363-2.437.781-3.353a4.595 4.595 0 0 1 1.95-.294c4.333-.015 8.666-.015 13 0a5.083 5.083 0 0 1 1.954.269c.763.414.69 1.177.814 1.885.203 1.17-.541 3.24.897 3.27 1.623.032.675-2.02.944-3.135.138-.57.022-1.217.567-1.646 1.816 0 3.614.102 5.397-.084 1.783-.185 2.096.604 2.197 2.115.2 2.927.582 5.84.89 8.761 1.134 1.57.807 3.458 1.04 5.202.162 1.202.573 2.488-.066 3.705.518 5.287 1.037 10.573 1.558 15.86.323 3.247.628 6.495 1.002 9.731.102.861-.047 1.163-.988 1.156-7.554-.051-15.11-.055-22.664-.073-1.286-1.99-1.002-4.312-1.242-6.484-.8-7.313-1.595-14.625-2.336-21.94-.236-2.37-.424-2.51-2.796-2.522H46.523c-.897 0-1.816.102-2.63-.457-.81-1.257-.486-2.623-.38-3.97.446-2.907.624-5.838.962-8.755.098-.872.17-1.704.9-2.285Z" fill="#2ECC82"/><path d="M43.832 61.393c5.136.026 10.272.091 15.408.048 1.26 0 1.758.261 1.888 1.638.618 6.538 1.37 13.077 2.074 19.616.366 3.414.73 6.83 1.09 10.247-10.602 0-21.204.022-31.806.073-1.12 0-1.3-.433-1.174-1.41.251-1.965.414-3.938.614-5.91-.497-.574-.341-1.246-.272-1.903.56-5.41 1.151-10.814 1.718-16.223.432-1.34.138-2.75.44-4.116.468-2.129.85-2.543 2.97-2.6 1.384-.037 2.772-.066 4.152.028.995.026 2.045-.283 2.898.512Z" fill="#126F43"/><path d="M41.042 61.419c-1.678.029-3.36.105-5.038.065-1.024-.022-1.5.233-1.558 1.377-.08 1.605-.396 3.197-.61 4.795-1.09-.894-2.626-.309-3.72-1.163L9.11 66.381c-1.7 0-3.389-.127-4.91-.985-3.106-1.75-4.556-4.359-4.116-7.951.298-.284.676-.215 1.028-.215 13.377 0 26.758-.032 40.135.022 1.278 1.453.65 2.816-.204 4.167Z" fill="#414141"/><path d="M30.118 66.493c.84 0 1.686.033 2.525-.021.839-.055 1.17.414 1.195 1.184-.454 6.026-1.13 12.03-1.907 18.024-4.65 0-9.302-.047-13.955.026-1.227.018-1.507-.385-1.507-1.544 0-4.61 2.379-7.069 6.991-7.094 4.094-.026 4.098-.026 5.085-4.072.542-2.165 1.05-4.334 1.573-6.503Zm55.266-.239-.974-8.907c1.983 0 3.974.12 5.946-.026 1.787-.134 2.76.266 2.317 2.267-1.115 4.116-3.36 6.183-7.29 6.666Z" fill="#414141"/><path d="m41.434 57.47-41.34-.025a.654.654 0 0 1 0-.345c13.18 0 26.365-.04 39.55 0 1.394 0 2.23-.127 2.255-1.85.032-1.972.483-3.937.588-5.917.153-2.768.146-2.826 2.906-2.793-.363 3.091-.705 6.175-1.064 9.267-.062.53-.171 1.053-.258 1.58-.868.668-1.747.726-2.637.083Z" fill="#BEBEBE"/><path d="M42.808 27.644c-.516 4.166-.948 8.354-1.58 12.495-.363 2.26-1.99 3.738-4.231 3.767-6.444.091-12.89.03-19.338 0a2.026 2.026 0 0 1-.657-.247c1.453-.999 2.906-.632 4.09-.363-1.428-.755-1.976-2.401-2.18-4.25-.214-1.914-.486-3.821-.759-5.728-.606-4.232 1.217-6.125 5.5-5.758.726.142 1.035.76 1.452 1.271 1.526 1.886 3.138 1.882 4.602 0 .363-.472.628-1.042 1.275-1.227a70.333 70.333 0 0 1 11.826.04Z" fill="#2ECC82"/><path d="M24.023 27.981h-1.268c-3.192.019-4.63 1.657-4.191 4.813.345 2.492.752 4.977 1.057 7.476.163 1.333 1.184 2.045 2.078 3.102-1.653.444-3.2.062-4.697.28-2.106-.548-3.269-1.773-3.527-3.814a3367.74 3367.74 0 0 1-1.852-14.498c-.076-.631-.221-1.06-.904-1.384-1.518-.726-1.936-2.262-1.431-4.358.385-1.595 1.54-1.817 2.905-1.784 1.747.04 3.494.04 5.241.058.498.625.127 1.26 0 1.885-.508 2.768.204 3.633 2.979 3.71 1.275.043 2.655-.408 3.78.613.466 1.344.644 2.645-.17 3.901Z" fill="#126F43"/><path d="M75.94 46.554c0 1.323-.022 2.641-.019 3.963 0 1-.218 1.857-1.43 1.846-1.214-.011-1.4-.923-1.42-1.889-.034-1.319-.052-2.637-.074-3.956-.824-1.09-.465-2.328-.49-3.505-.033-1.639-.05-3.24-.77-4.78-1.572-3.36-5.234-5.45-8.532-4.785-4.267.85-6.9 3.724-7.097 7.752-.05 1.09 0 2.18-.022 3.27 0 .726.051 1.452-.512 2.052-.029 1.257-.054 2.514-.09 3.77-.026.996-.084 2.05-1.417 2.078-1.333.03-1.453-.977-1.427-2.009V46.58c.294-2.808-.415-5.667.584-8.45 2.121-5.924 6.967-8.92 13.392-7.838 5.223.879 9.338 5.485 9.305 11.555-.029 1.562-.003 3.13.018 4.707Z" fill="#FEFEFE"/><path d="M24.023 27.981 24 24.015a7.033 7.033 0 0 1 0-6.176c.036-1.747.044-3.49.109-5.234.084-2.263 1.286-3.575 3.218-3.59 2.027 0 3.204 1.32 3.233 3.699.025 1.685.021 3.37.029 5.06.284.393.435.866.432 1.351 0 2.34.05 4.683.09 7.022a2.71 2.71 0 0 1-.537 1.863c-.363 1.588-1.369 2.641-2.974 2.75-1.9.131-2.899-1.184-3.578-2.779Z" fill="#414141"/><path d="M30.876 17.88c4.025 0 8.049-.048 12.073-.033 1.816 0 2.42.693 2.514 2.52.094 1.828.12 3.568-2.238 3.996-3.766.49-7.544.233-11.317.135-.727-.022-1.253-.385-1.203-1.254.106-1.783-.21-3.585.171-5.365Z" fill="#2ECC82"/><path d="M75.81 16.074h-9.233c-.999 0-1.896-.182-1.907-1.388-.01-1.206.893-1.453 1.874-1.453h18.647c.981 0 1.907.262 1.915 1.435.007 1.173-.865 1.428-1.886 1.42-3.138-.025-6.276-.014-9.41-.014Z" fill="#404350"/><path d="M76.01 19.913h9.047c1.038 0 2.063.124 2.044 1.453 0 1.185-.991 1.399-1.95 1.403h-18.64c-.98 0-1.878-.287-1.852-1.49.025-1.202.98-1.351 1.94-1.351l9.41-.015Z" fill="#414350"/><path d="M30.876 17.88c0 1.561.054 3.127 0 4.689-.048 1.09.363 1.475 1.453 1.453 3.185-.051 6.374 0 9.563 0 .472 0 .977-.084 1.336.363-.138 1.09-.28 2.18-.417 3.27-.945.595-1.998.334-3.008.345-3.076.036-6.152.025-9.229.029V17.792c.107.002.21.032.302.087Z" fill="#126F43"/><path d="M24 17.847v6.175h-4.304c-2.274 0-2.953-.727-2.989-2.993 0-1.123.563-2.064.726-3.117L24 17.847Zm32.628-1.784c-.966 0-1.932.022-2.905 0-.84-.029-1.366-.483-1.413-1.333a1.286 1.286 0 0 1 1.31-1.453 84.56 84.56 0 0 1 6.147 0 1.28 1.28 0 0 1 1.314 1.435c-.043.977-.657 1.351-1.569 1.355h-2.905l.021-.004Zm.2 3.869h2.713c.897 0 1.525.381 1.554 1.366a1.285 1.285 0 0 1-1.336 1.413 96.753 96.753 0 0 1-6.142 0 1.278 1.278 0 0 1-1.3-1.453c.047-.876.624-1.28 1.453-1.312 1.02-.043 2.048 0 3.072 0l-.014-.014Z" fill="#2ECC82"/><path d="M55.565 46.51c.134-2.397-.327-4.82.287-7.195a8.609 8.609 0 0 1 8.862-6.51 8.717 8.717 0 0 1 8.281 8.65v5.063l-17.43-.007Z" fill="#CBE0F0"/><path d="m41.435 57.47 2.637-.094c-.073 1.34-.149 2.677-.225 4.017a8.171 8.171 0 0 1-2.79.026c-.025-1.33.567-2.601.378-3.949Z" fill="#33333D"/><path d="M55.237 70.86c0 1.09.066 2.18 0 3.269a7.498 7.498 0 0 1-7.413 6.811c-3.723.025-7.17-2.906-7.46-6.568-.182-2.284-.062-4.591-.08-6.901 0-.934.458-1.555 1.37-1.58.91-.026 1.408.693 1.452 1.55.066 1.875 0 3.75.054 5.62.059 2.939 1.951 4.984 4.599 5.01 2.648.025 4.598-2.024 4.674-4.93.044-1.755 0-3.505.022-5.26 0-.963.236-1.95 1.395-1.976 1.286-.033 1.485.966 1.453 2.03-.026.967 0 1.937 0 2.907l-.066.018Z" fill="#E8E8E8"/></g><defs><clipPath id="a"><path fill="#fff" d="M0 0h93v93H0z"/></clipPath></defs></svg>
